Sources/FrostedUI/Resources/Icons.xcassets/truck24.imageset/truck-24.svg

<svg width="24" height="24" viewBox="0 0 24 24" fill="none" xmlns="http://www.w3.org/2000/svg" data-fui-icon="true">
  <path
    d="M14.2131 4.12549C16.4745 4.12566 18.2211 6.11222 17.9319 8.35498L17.8489 9.00049H19.8411C20.8352 9.00058 21.7451 9.56242 22.1897 10.4517L23.2844 12.6411C23.523 13.1185 23.6098 13.6577 23.5344 14.186L23.0979 17.2466C22.913 18.5395 21.8053 19.5003 20.4993 19.5005H20.3293C20.0049 21.0978 18.5928 22.3003 16.8997 22.3003C15.2066 22.3002 13.7944 21.0978 13.47 19.5005H10.5295C10.2051 21.0979 8.79299 22.3003 7.09985 22.3003C5.36699 22.3002 3.92893 21.0406 3.64966 19.3872C2.06393 18.9603 0.988981 17.371 1.29907 15.6646L1.55591 14.2505H1.20044C0.786348 14.2505 0.450637 13.9145 0.450439 13.5005C0.450439 13.0863 0.786226 12.7505 1.20044 12.7505H4.80005C5.21406 12.7507 5.55005 13.0864 5.55005 13.5005C5.54985 13.9144 5.21394 14.2503 4.80005 14.2505H3.08032L2.77466 15.9331C2.62834 16.7389 3.05477 17.4966 3.73755 17.8267C4.15929 16.3674 5.50477 15.3003 7.09985 15.3003C8.75763 15.3003 10.1453 16.453 10.5071 18.0005H13.4924C13.7443 16.9231 14.4931 16.0371 15.4846 15.5981L16.4446 8.16357C16.6182 6.81787 15.5699 5.62566 14.2131 5.62549H4.50024C4.08617 5.62547 3.75044 5.28952 3.75024 4.87549C3.75024 4.46129 4.08605 4.12551 4.50024 4.12549H14.2131ZM7.09985 16.8003C5.99534 16.8004 5.09985 17.6958 5.09985 18.8003C5.09992 19.9048 5.99538 20.8002 7.09985 20.8003C8.20438 20.8003 9.09979 19.9048 9.09985 18.8003C9.09985 17.6957 8.20442 16.8003 7.09985 16.8003ZM16.8997 16.8003C15.7952 16.8005 14.8997 17.6958 14.8997 18.8003C14.8997 19.9047 15.7953 20.8001 16.8997 20.8003C18.0042 20.8003 18.8996 19.9048 18.8997 18.8003C18.8997 17.6957 18.0042 16.8003 16.8997 16.8003ZM17.0344 15.3032C18.6324 15.3636 19.9549 16.495 20.3069 18.0005H20.4993C21.0588 18.0003 21.5332 17.5885 21.6125 17.0347L22.05 13.9741C22.0824 13.7478 22.0448 13.5165 21.9426 13.312L20.8479 11.1226C20.6574 10.7415 20.2671 10.5006 19.8411 10.5005H17.6545L17.0344 15.3032ZM8.40063 8.25049C8.81456 8.25083 9.15063 8.58649 9.15063 9.00049C9.15044 9.41432 8.81444 9.75015 8.40063 9.75049H1.20044C0.786348 9.75049 0.450637 9.41453 0.450439 9.00049C0.450439 8.58627 0.786226 8.25049 1.20044 8.25049H8.40063Z"
    fill="currentColor"
  />
</svg>

<svg xmlns="http://www.w3.org/2000/svg" width="24" height="24" fill="none" data-fui-icon="true" viewBox="0 0 24 24"><path fill="currentColor" d="M14.213 4.125a3.75 3.75 0 0 1 3.719 4.23L17.849 9h1.992c.994 0 1.904.562 2.349 1.452l1.094 2.19c.239.476.326 1.016.25 1.544l-.436 3.06a2.626 2.626 0 0 1-2.599 2.255h-.17a3.501 3.501 0 0 1-6.859 0h-2.94a3.501 3.501 0 0 1-6.88-.114 3.255 3.255 0 0 1-2.35-3.722l.256-1.414H1.2a.75.75 0 0 1 0-1.5h3.6a.75.75 0 0 1 0 1.5H3.08l-.305 1.682c-.147.806.28 1.564.963 1.894a3.501 3.501 0 0 1 6.77.173h2.984a3.5 3.5 0 0 1 1.993-2.402l.96-7.434a2.25 2.25 0 0 0-2.232-2.539H4.5a.75.75 0 0 1 0-1.5zM7.1 16.8a2 2 0 1 0 0 4 2 2 0 0 0 0-4m9.8 0a2 2 0 1 0 0 4 2 2 0 0 0 0-4m.134-1.497A3.5 3.5 0 0 1 20.307 18h.192c.56 0 1.034-.412 1.114-.965l.437-3.06a1.13 1.13 0 0 0-.107-.663l-1.095-2.19a1.13 1.13 0 0 0-1.007-.621h-2.187zM8.401 8.25a.75.75 0 0 1 0 1.5H1.2a.75.75 0 0 1 0-1.5z"/></svg>
